img/header/phone.svg

<svg width="21" height="21" fill="none" xmlns="http://www.w3.org/2000/svg"><path d="M20.98 17.28a1.6 1.6 0 0 0-.8-1.19L15 13.1c-.63-.36-1.44-.26-1.96.26l-1.02 1.02c-.27.27-.7.3-1 .06a30.8 30.8 0 0 1-4.47-4.47.75.75 0 0 1 .06-1l1.02-1.02c.52-.52.62-1.33.26-1.96L4.9.81a1.6 1.6 0 0 0-1.19-.8c-.5-.07-1 .1-1.36.46L.81 2.01C-.26 3.08-.28 5.04.76 7.54c1.01 2.39 2.88 5.03 5.27 7.42 2.39 2.39 5.03 4.26 7.42 5.27 1.23.51 2.33.77 3.26.77.95 0 1.73-.28 2.27-.82l1.54-1.54c.36-.36.53-.86.46-1.36Zm-6.32-3.59 5.18 2.99c.26.14.43.4.47.69.03.24-.04.49-.18.68l-6.89-3.93.28-.28c.31-.3.77-.36 1.14-.15ZM3.62.68c.29.04.55.21.69.47L7.3 6.33c.21.37.15.83-.15 1.14l-.26.25L2.94.86c.16-.12.35-.18.56-.18h.12ZM18.5 19.7c-.85.85-2.6.81-4.78-.1-2.32-.97-4.88-2.79-7.21-5.12S2.36 9.59 1.39 7.27c-.91-2.18-.95-3.93-.1-4.78l1.15-1.14 3.95 6.87-.26.27c-.52.51-.57 1.33-.11 1.9.66.83 1.39 1.64 2.17 2.41.77.78 1.58 1.51 2.41 2.17.57.46 1.39.41 1.9-.11l.25-.24 6.89 3.94-1.14 1.14Z" fill="#FFF"/></svg>

<svg width="20.999939" height="21.000015" viewBox="0 0 20.9999 21" fill="none" xmlns="http://www.w3.org/2000/svg" xmlns:xlink="http://www.w3.org/1999/xlink">
	<desc>
			Created with Pixso.
	</desc>
	<defs/>
	<path d="M20.98 17.28C20.91 16.77 20.62 16.34 20.18 16.09L15 13.1C14.37 12.74 13.56 12.84 13.04 13.36L12.02 14.38C11.75 14.65 11.32 14.68 11.02 14.44C10.22 13.79 9.43 13.08 8.67 12.32C7.91 11.56 7.2 10.77 6.55 9.97C6.31 9.67 6.34 9.24 6.61 8.97L7.63 7.95C8.15 7.43 8.25 6.62 7.89 5.99L4.9 0.81C4.65 0.37 4.22 0.08 3.71 0.01C3.21 -0.06 2.71 0.11 2.35 0.47L0.81 2.01C-0.26 3.08 -0.28 5.04 0.76 7.54C1.77 9.93 3.64 12.57 6.03 14.96C8.42 17.35 11.06 19.22 13.45 20.23C14.68 20.74 15.78 21 16.71 21C17.66 21 18.44 20.72 18.98 20.18L20.52 18.64C20.88 18.28 21.05 17.78 20.98 17.28ZM14.66 13.69L19.84 16.68C20.1 16.82 20.27 17.08 20.31 17.37C20.34 17.61 20.27 17.86 20.13 18.05L13.24 14.12L13.52 13.84C13.83 13.54 14.29 13.48 14.66 13.69ZM3.62 0.68C3.91 0.72 4.17 0.89 4.31 1.15L7.3 6.33C7.51 6.7 7.45 7.16 7.15 7.47L6.89 7.72L2.94 0.86C3.1 0.74 3.29 0.68 3.5 0.68C3.54 0.68 3.58 0.68 3.62 0.68ZM18.5 19.7C17.65 20.55 15.9 20.51 13.72 19.6C11.4 18.63 8.84 16.81 6.51 14.48C4.18 12.15 2.36 9.59 1.39 7.27C0.48 5.09 0.44 3.34 1.29 2.49L2.44 1.35L6.39 8.22L6.13 8.49C5.61 9 5.56 9.82 6.02 10.39C6.68 11.22 7.41 12.03 8.19 12.8C8.96 13.58 9.77 14.31 10.6 14.97C11.17 15.43 11.99 15.38 12.5 14.86L12.75 14.62L19.64 18.56L18.5 19.7Z" fill="#FFFFFF" fill-opacity="1.000000" fill-rule="nonzero"/>
</svg>
